plasma/desktoptheme/Materia/icons/manjaro.svg

<?xml version="1.0" encoding="UTF-8"?>
<svg width="32" height="32" version="1" xmlns="http://www.w3.org/2000/svg">
 <g id="manjaro-settings-manager">
  <rect width="32" height="32" opacity=".001"/>
  <path d="m3.4 3c-0.7756 0-1.4 0.6244-1.4 1.4v25.2c0 0.7756 0.6244 1.4 1.4 1.4h6.6v-20h10v-8zm18.6 0v28h6.6c0.7756 0 1.4-0.6244 1.4-1.4v-25.2c0-0.7756-0.6244-1.4-1.4-1.4zm-10 10v18h8v-18z" opacity=".2"/>
  <path d="m3.4 2c-0.7756 0-1.4 0.6244-1.4 1.4v25.2c0 0.7756 0.6244 1.4 1.4 1.4h6.6v-20h10v-8zm18.6 0v28h6.6c0.7756 0 1.4-0.6244 1.4-1.4v-25.2c0-0.7756-0.6244-1.4-1.4-1.4zm-10 10v18h8v-18z" fill="#16a085"/>
  <path d="m3.4004 2c-0.7756 0-1.4004 0.62479-1.4004 1.4004v1c0-0.7756 0.62479-1.4004 1.4004-1.4004h16.6v-1zm18.6 0v1h6.5996c0.7756 0 1.4004 0.62479 1.4004 1.4004v-1c0-0.7756-0.62479-1.4004-1.4004-1.4004zm-10 10v1h8v-1z" fill="#fff" opacity=".2"/>
 </g>
 <g id="22-22-manjaro-settings-manager" transform="translate(27,5)">
  <rect x="5" y="5" width="22" height="22" opacity=".001"/>
  <path d="m9.75 9c-0.4155 0-0.75 0.3345-0.75 0.75v12.5c0 0.4155 0.35287 0.62781 0.75 0.75h3.25v-10h5v-4zm9.25 0v14h3.25c0.4155 0 0.75-0.3345 0.75-0.75v-12.5c0-0.4155-0.3345-0.75-0.75-0.75zm-5 5v9h4v-9z" fill="#dfdfdf"/>
 </g>
</svg>

<svg xmlns="http://www.w3.org/2000/svg" width="32" height="32" version="1">
 <g id="manjaro-settings-manager">
  <rect style="opacity:0.001" width="32" height="32" x="0" y="0"/>
  <path style="opacity:0.2" d="M 3.4,3 C 2.6244,3 2,3.6244 2,4.4 V 29.6 C 2,30.3756 2.6244,31 3.4,31 H 10 V 11 H 20 V 3 Z M 22,3 v 28 h 6.6 C 29.3756,31 30,30.3756 30,29.6 V 4.4 C 30,3.6244 29.3756,3 28.6,3 Z M 12,13 v 18 h 8 V 13 Z"/>
  <path style="fill:#16a085" d="M 3.4,2 C 2.6244,2 2,2.6244 2,3.4 V 28.6 C 2,29.3756 2.6244,30 3.4,30 H 10 V 10 H 20 V 2 Z M 22,2 v 28 h 6.6 C 29.3756,30 30,29.3756 30,28.6 V 3.4 C 30,2.6244 29.3756,2 28.6,2 Z M 12,12 v 18 h 8 V 12 Z"/>
  <path style="opacity:0.2;fill:#ffffff" d="M 3.4003906,2 C 2.6247906,2 2,2.6247906 2,3.4003906 v 1 C 2,3.6247906 2.6247906,3 3.4003906,3 H 20 V 2 Z M 22,2 v 1 h 6.599609 C 29.375209,3 30,3.6247906 30,4.4003906 v -1 C 30,2.6247906 29.375209,2 28.599609,2 Z M 12,12 v 1 h 8 v -1 z"/>
 </g>
 <g id="22-22-manjaro-settings-manager" transform="translate(27,5)">
  <rect style="opacity:0.001" width="22" height="22" x="5" y="5"/>
  <path style="fill:#dfdfdf" d="M 9.75,9 C 9.3345,9 9,9.3345 9,9.75 v 12.5 C 9,22.6655 9.352874,22.877807 9.75,23 H 13 V 13 h 5 V 9 Z M 19,9 v 14 h 3.25 C 22.6655,23 23,22.6655 23,22.25 V 9.75 C 23,9.3345 22.6655,9 22.25,9 Z m -5,5 v 9 h 4 v -9 z"/>
 </g>
</svg>
